X:1     %Music
T:We've been a while a-wandering
B:Ian Russell,Hark! Hark! What News, Sheffield, 1996
C: Transcribed Ian Russell, http://www.sgpublishing.co.uk/gm/vc/vcabout.html
S:Charles Green, 25 May 1971
Z:Ian Russell
Q:1/4=72     %Tempo
V:1 clef=treble-8
M:4/4     %Meter
L:1/8     %
K:G
D2 |G2 G2 D2 D2 |B,3 C D2 D2 |G2 G2 A2 A2 | B6
w:We've been a while a wan-der-ing a-mongst the leaves so green,
B2 |B2 B2 B2 B2 |B3 B A2 B2 |(d2 c2) B2 A2 | B4 z4 |
w:And now we come a-wes-sel-ing so fair_ to be seen.
B4 B4 |c4 c4 |A4 A4 |B4 B4 |
w:Pray God send you, pray God send you,
G4 D4 |(E2c2) B2 A2 |G4 F2 F2 | G6 z2 |]
w: Pray God send_ you a hap-py New Year!